actions/16/draw-calligraphic.svg

<?xml version="1.0" encoding="UTF-8"?>
<!-- Created with Inkscape (http://www.inkscape.org/) -->
<svg width="16" height="16" version="1.1" xmlns="http://www.w3.org/2000/svg" xmlns:cc="http://creativecommons.org/ns#" xmlns:dc="http://purl.org/dc/elements/1.1/" xmlns:rdf="http://www.w3.org/1999/02/22-rdf-syntax-ns#">
	<defs>
		<radialGradient id="a" cx="-9425.9" cy="5032.1" r="9" gradientTransform="matrix(1.3333 0 0 1.1851 3198.2 -1117.3)" gradientUnits="userSpaceOnUse">
			<stop stop-color="#213851" stop-opacity=".9059" offset="0"/>
			<stop stop-color="#27303a" stop-opacity="0" offset="1"/>
		</radialGradient>
		<radialGradient id="b" cx="5.9817" cy="10.689" r="8.7344" gradientTransform="matrix(1.4902 0 0 1.4902 -3.9137 -3.929)" gradientUnits="userSpaceOnUse">
			<stop stop-color="#ffffff" stop-opacity=".74858" offset="0"/>
			<stop stop-color="#ffffff" stop-opacity=".60511" offset="1"/>
		</radialGradient>
	</defs>
	<metadata>
		<rdf:RDF>
			<cc:Work rdf:about="">
				<dc:format>image/svg+xml</dc:format>
				<dc:type rdf:resource="http://purl.org/dc/dcmitype/StillImage"/>
				<dc:title/>
			</cc:Work>
		</rdf:RDF>
	</metadata>
	<g transform="translate(9379.3 -4843.2)">
		<path d="m-9369.9 4844.2-0.7188 0.7188 0.7188 0.6875c-2.1213 2.1213-4.9412 3.5429-7.0625 4.25-0.05 2.1212-0.6211 6.0005-1.3125 8.375 2.3745-0.6914 6.2538-1.2622 8.375-1.3125 0.7071-2.1213 2.1287-4.9412 4.25-7.0625l0.6875 0.7187 0.7187-0.7187-2.8437-2.8125zm-3.0938 7.8125 0.4688 0.4688 0.4687 0.4687-2.5 2.5-0.4687-0.4687-0.4688-0.4688z" color="#000000" fill="#090d11" fill-opacity=".76621" style="font-variant-east_asian:normal;paint-order:normal"/>
		<path d="m-9369.9 4844.2-0.7188 0.7188 0.7188 0.6875c-2.1213 2.1213-4.9412 3.5429-7.0625 4.25-0.05 2.1212-0.6211 6.0005-1.3125 8.375 2.3745-0.6914 6.2538-1.2622 8.375-1.3125 0.7071-2.1213 2.1287-4.9412 4.25-7.0625l0.6875 0.7187 0.7187-0.7187-2.8437-2.8125-2.8125-2.8438zm-3.0938 7.8125 0.4688 0.4688 0.4687 0.4687-2.5 2.5-0.4687-0.4687-0.4688-0.4688 2.5-2.5z" color="#000000" fill="url(#a)" fill-opacity=".75328" style="font-variant-east_asian:normal;paint-order:normal"/>
		<path transform="translate(-9379.3 4843.2)" d="m9.375-0.71875-0.84375 0.84375-0.71875 0.71875-0.875 0.875 0.59375 0.5625c-1.8067 1.4917-3.9268 2.6632-5.5938 3.2188l-0.8125 0.25v0.84375c-0.046 1.9408-0.63835 5.8547-1.2812 8.0625l-0.59375 2.0938 2.0938-0.59375c2.2079-0.6428 6.1218-1.2352 8.0625-1.2812h0.84375l0.25-0.8125c0.5556-1.6669 1.7272-3.787 3.2188-5.5938l0.5625 0.59375 0.875-0.875 0.71875-0.71875 0.84375-0.84375-0.84375-0.84375-2.8438-2.8125-2.8125-2.8438-0.84375-0.84375zm0 1.6875 2.8125 2.8438 2.8438 2.8125-0.71875 0.71875-0.6875-0.71875c-2.1213 2.1213-3.5429 4.9412-4.25 7.0625-2.1212 0.0503-6.0005 0.6211-8.375 1.3125 0.6914-2.3745 1.2625-6.2538 1.3125-8.375 2.1213-0.7071 4.9412-2.1287 7.0625-4.25l-0.71875-0.6875 0.71875-0.71875zm-3.0938 7.8125-2.5 2.5 0.46875 0.46875 0.46875 0.46875 2.5-2.5-0.46875-0.46875-0.46875-0.46875z" color="#000000" fill="url(#b)" fill-opacity=".99858" style="block-progression:tb;font-variant-east_asian:normal;paint-order:normal;text-indent:0;text-transform:none"/>
	</g>
</svg>

<?xml version="1.0" encoding="UTF-8" standalone="no"?>
<!-- Created with Inkscape (http://www.inkscape.org/) -->

<svg
   xmlns:dc="http://purl.org/dc/elements/1.1/"
   xmlns:cc="http://creativecommons.org/ns#"
   xmlns:rdf="http://www.w3.org/1999/02/22-rdf-syntax-ns#"
   xmlns:svg="http://www.w3.org/2000/svg"
   xmlns="http://www.w3.org/2000/svg"
   xmlns:sodipodi="http://sodipodi.sourceforge.net/DTD/sodipodi-0.dtd"
   xmlns:inkscape="http://www.inkscape.org/namespaces/inkscape"
   width="15.999998"
   height="15.999998"
   id="svg13094"
   version="1.1"
   inkscape:version="0.48.3.1 r9886"
   sodipodi:docname="calligraphy.svg">
  <sodipodi:namedview
     id="base"
     pagecolor="#ffffff"
     bordercolor="#666666"
     borderopacity="1.0"
     inkscape:pageopacity="0.0"
     inkscape:pageshadow="2"
     inkscape:zoom="32"
     inkscape:cx="9.02259"
     inkscape:cy="7.462904"
     inkscape:document-units="px"
     inkscape:current-layer="layer1"
     showgrid="true"
     inkscape:snap-bbox="true"
     inkscape:bbox-paths="true"
     inkscape:bbox-nodes="true"
     inkscape:snap-bbox-edge-midpoints="true"
     inkscape:snap-bbox-midpoints="true"
     inkscape:object-paths="true"
     inkscape:snap-intersection-paths="true"
     inkscape:object-nodes="true"
     inkscape:snap-smooth-nodes="true"
     inkscape:snap-midpoints="true"
     inkscape:snap-object-midpoints="true"
     inkscape:snap-center="true"
     showguides="false"
     inkscape:guide-bbox="true"
     inkscape:window-width="1920"
     inkscape:window-height="1023"
     inkscape:window-x="-10"
     inkscape:window-y="35"
     inkscape:window-maximized="1"
     inkscape:snap-global="true"
     fit-margin-top="0"
     fit-margin-left="0"
     fit-margin-right="0"
     fit-margin-bottom="0"
     showborder="true"
     inkscape:showpageshadow="false">
    <sodipodi:guide
       orientation="0,1"
       position="-25.000005,930.61286"
       id="guide4700" />
    <sodipodi:guide
       orientation="0,1"
       position="576.71887,328.89388"
       id="guide4702" />
    <sodipodi:guide
       orientation="1,0"
       position="576.71899,489.70395"
       id="guide4706" />
    <sodipodi:guide
       orientation="1,0"
       position="54.999996,930.61286"
       id="guide4708" />
    <sodipodi:guide
       orientation="0,1"
       position="-25.000005,850.61296"
       id="guide4710" />
    <sodipodi:guide
       orientation="0,1"
       position="536.71887,408.8938"
       id="guide4712" />
    <sodipodi:guide
       orientation="1,0"
       position="496.71887,408.8938"
       id="guide4714" />
    <inkscape:grid
       type="xygrid"
       id="grid3216"
       empspacing="5"
       visible="true"
       enabled="true"
       snapvisiblegridlinesonly="true"
       originx="-24.999951px"
       originy="-219.00005px" />
    <sodipodi:guide
       orientation="-0.70710664,0.70710692"
       position="4.0000502,-246.00005"
       id="guide3847" />
    <sodipodi:guide
       orientation="0.70710594,0.70710762"
       position="5.0000502,-245.00005"
       id="guide3849" />
    <sodipodi:guide
       orientation="-0.70710681,0.70710676"
       position="7.0000502,-212.00005"
       id="guide3851" />
  </sodipodi:namedview>
  <defs
     id="defs13096" />
  <metadata
     id="metadata13099">
    <rdf:RDF>
      <cc:Work
         rdf:about="">
        <dc:format>image/svg+xml</dc:format>
        <dc:type
           rdf:resource="http://purl.org/dc/dcmitype/StillImage" />
        <dc:title />
      </cc:Work>
    </rdf:RDF>
  </metadata>
  <g
     transform="translate(9379.308,-4843.1988)"
     id="layer1"
     inkscape:groupmode="layer"
     inkscape:label="Camada 1">
    <path
       id="path3008"
       d="m -9369.933,4844.1675 -0.7188,0.7188 0.7188,0.6875 c -2.1213,2.1213 -4.9412,3.5429 -7.0625,4.25 -0.05,2.1212 -0.6211,6.0005 -1.3125,8.375 2.3745,-0.6914 6.2538,-1.2622 8.375,-1.3125 0.7071,-2.1213 2.1287,-4.9412 4.25,-7.0625 l 0.6875,0.7187 0.7187,-0.7187 -2.8437,-2.8125 -2.8125,-2.8438 z m -3.0938,7.8125 0.4688,0.4688 0.4687,0.4687 -2.5,2.5 -0.4687,-0.4687 -0.4688,-0.4688 2.5,-2.5 z"
       style="color:#000000;fill:#27303a;fill-opacity:0.753280819999999968;fill-rule:nonzero;stroke:none;stroke-width:1;marker:none;visibility:visible;display:inline;overflow:visible;enable-background:accumulate"
       inkscape:connector-curvature="0" />
    <path
       style="font-size:medium;font-style:normal;font-variant:normal;font-weight:normal;font-stretch:normal;text-indent:0;text-align:start;text-decoration:none;line-height:normal;letter-spacing:normal;word-spacing:normal;text-transform:none;direction:ltr;block-progression:tb;writing-mode:lr-tb;text-anchor:start;baseline-shift:baseline;color:#000000;fill:#f1f3f5;fill-opacity:0.90288714000000003;fill-rule:nonzero;stroke:none;stroke-width:2;marker:none;visibility:visible;display:inline;overflow:visible;enable-background:accumulate;font-family:Sans;-inkscape-font-specification:Sans"
       d="M 9.375 -0.71875 L 8.53125 0.125 L 7.8125 0.84375 L 6.9375 1.71875 L 7.53125 2.28125 C 5.72455 3.77295 3.6044 4.9444 1.9375 5.5 L 1.125 5.75 L 1.125 6.59375 C 1.079 8.53455 0.48665 12.44845 -0.15625 14.65625 L -0.75 16.75 L 1.34375 16.15625 C 3.55165 15.51345 7.46555 14.921 9.40625 14.875 L 10.25 14.875 L 10.5 14.0625 C 11.0556 12.3956 12.22715 10.27555 13.71875 8.46875 L 14.28125 9.0625 L 15.15625 8.1875 L 15.875 7.46875 L 16.71875 6.625 L 15.875 5.78125 L 13.03125 2.96875 L 10.21875 0.125 L 9.375 -0.71875 z M 9.375 0.96875 L 12.1875 3.8125 L 15.03125 6.625 L 14.3125 7.34375 L 13.625 6.625 C 11.5037 8.7463 10.0821 11.5662 9.375 13.6875 C 7.2538 13.7378 3.3745 14.3086 1 15 C 1.6914 12.6255 2.2625 8.7462 2.3125 6.625 C 4.4338 5.9179 7.2537 4.4963 9.375 2.375 L 8.65625 1.6875 L 9.375 0.96875 z M 6.28125 8.78125 L 3.78125 11.28125 L 4.25 11.75 L 4.71875 12.21875 L 7.21875 9.71875 L 6.75 9.25 L 6.28125 8.78125 z "
       transform="translate(-9379.308,4843.1988)"
       id="path2995" />
  </g>
</svg>
